source/images/icons/icon-editorial/permis-animal-chat.svg

<?xml version="1.0" encoding="UTF-8"?>
<svg width="80px" height="80px" viewBox="0 0 80 80" version="1.1" xmlns="http://www.w3.org/2000/svg" xmlns:xlink="http://www.w3.org/1999/xlink">
    <!-- Generator: Sketch 55.2 (78181) - https://sketchapp.com -->
    <title>Illustrative Icons/Permis-animal-chat</title>
    <desc>Created with Sketch.</desc>
    <g id="Illustrative-Icons/Permis-animal-chat" stroke="none" stroke-width="1" fill="none" fill-rule="evenodd">
        <path d="M53.2,33.4285714 C52.2925,33.4285714 51.55,32.6892857 51.55,31.7857143 C51.55,30.8821429 52.2925,30.1428571 53.2,30.1428571 L63.1,30.1428571 C64.0075,30.1428571 64.75,30.8821429 64.75,31.7857143 C64.75,32.6892857 64.0075,33.4285714 63.1,33.4285714 L53.2,33.4285714 L53.2,33.4285714 Z M53.2,41.6428571 L59.8,41.6428571 C60.7075,41.6428571 61.45,40.9035714 61.45,40 C61.45,39.0964286 60.7075,38.3571429 59.8,38.3571429 L53.2,38.3571429 C52.2925,38.3571429 51.55,39.0964286 51.55,40 C51.55,40.9035714 52.2925,41.6428571 53.2,41.6428571 L53.2,41.6428571 Z M53.2,49.8571429 L61.45,49.8571429 C62.3575,49.8571429 63.1,49.1178571 63.1,48.2142857 C63.1,47.3107143 62.3575,46.5714286 61.45,46.5714286 L53.2,46.5714286 C52.2925,46.5714286 51.55,47.3107143 51.55,48.2142857 C51.55,49.1178571 52.2925,49.8571429 53.2,49.8571429 L53.2,49.8571429 Z M10.3,18.6428571 C10.3,17.7392857 9.5575,17 8.65,17 C7.7425,17 7,17.7392857 7,18.6428571 C7,19.5464286 7.7425,20.2857143 8.65,20.2857143 C9.5575,20.2857143 10.3,19.5464286 10.3,18.6428571 L10.3,18.6428571 Z M25.15,36.7142857 C24.2425,36.7142857 23.5,37.4535714 23.5,38.3571429 L23.5,40 C23.5,40.9035714 24.2425,41.6428571 25.15,41.6428571 C26.0575,41.6428571 26.8,40.9035714 26.8,40 L26.8,38.3571429 C26.8,37.4535714 26.0575,36.7142857 25.15,36.7142857 L25.15,36.7142857 Z M35.05,36.7142857 C34.1425,36.7142857 33.4,37.4535714 33.4,38.3571429 L33.4,40 C33.4,40.9035714 34.1425,41.6428571 35.05,41.6428571 C35.9575,41.6428571 36.7,40.9035714 36.7,40 L36.7,38.3571429 C36.7,37.4535714 35.9575,36.7142857 35.05,36.7142857 L35.05,36.7142857 Z M28.45,44.9614286 C28.45,45.865 29.1925,46.6042857 30.1,46.6042857 C31.0075,46.6042857 31.75,45.865 31.75,44.9614286 C31.75,44.0578571 31.0075,43.3185714 30.1,43.3185714 C29.176,43.3185714 28.45,44.0414286 28.45,44.9614286 L28.45,44.9614286 Z M46.6,25.6907143 L46.6,40 C46.6,49.0521429 39.1915,56.4285714 30.1,56.4285714 C21.0085,56.4285714 13.6,49.0521429 13.6,40 L13.6,25.7071429 C13.5835,24.9185714 13.732,24.2285714 14.326,23.8014286 C15.0685,23.2757143 15.9925,23.5385714 16.537,24.2614286 L21.256,29.42 C23.8135,27.7935714 26.8495,26.8407143 30.1165,26.8407143 C33.3505,26.8407143 36.37,27.7771429 38.911,29.3707143 L43.663,24.245 C44.191,23.5057143 45.2635,23.3578571 46.006,23.8835714 C46.567,24.3107143 46.6165,24.935 46.6,25.6907143 L46.6,25.6907143 Z M43.3,30.5864286 L39.769,34.3485714 C37.36,31.7692857 33.9115,30.1428571 30.1,30.1428571 C26.2885,30.1428571 22.84,31.7692857 20.431,34.3485714 L16.9,30.7014286 L16.9,40 C16.9,47.245 22.8235,53.1428571 30.1,53.1428571 C37.3765,53.1428571 43.3,47.245 43.3,40 L43.3,30.5864286 Z M68.05,17 C70.7725,17 73,19.2178571 73,21.9285714 L73,58.0714286 C73,60.7821429 70.7725,63 68.05,63 L11.95,63 C9.2275,63 7,60.7821429 7,58.0714286 L7,28.5 C7,27.5964286 7.7425,26.8571429 8.65,26.8571429 C9.5575,26.8571429 10.3,27.5964286 10.3,28.5 L10.3,58.0714286 C10.3,58.975 11.0425,59.7142857 11.95,59.7142857 L68.05,59.7142857 C68.9575,59.7142857 69.7,58.975 69.7,58.0714286 L69.7,21.9285714 C69.7,21.025 68.9575,20.2857143 68.05,20.2857143 L15.2665,20.2857143 C14.359,20.2857143 13.6165,19.5464286 13.6165,18.6428571 C13.6165,17.7392857 14.359,17 15.2665,17 L68.05,17 Z" id="Shape" fill="#ADB5BD"></path>
    </g>
</svg>

<svg width="80" height="80">
    <title>
        Illustrative Icons/Permis-animal-chat
    </title>
    <path d="M53.2 33.429c-.908 0-1.65-.74-1.65-1.643 0-.904.742-1.643 1.65-1.643h9.9c.907 0 1.65.74 1.65 1.643s-.743 1.643-1.65 1.643h-9.9zm0 8.214h6.6c.908 0 1.65-.74 1.65-1.643 0-.904-.742-1.643-1.65-1.643h-6.6c-.908 0-1.65.74-1.65 1.643 0 .904.742 1.643 1.65 1.643zm0 8.214h8.25c.907 0 1.65-.74 1.65-1.643s-.742-1.643-1.65-1.643H53.2c-.908 0-1.65.74-1.65 1.643 0 .904.742 1.643 1.65 1.643zM10.3 18.643c0-.904-.743-1.643-1.65-1.643-.908 0-1.65.74-1.65 1.643s.742 1.643 1.65 1.643c.907 0 1.65-.74 1.65-1.643zm14.85 18.071c-.907 0-1.65.74-1.65 1.643V40c0 .904.742 1.643 1.65 1.643.908 0 1.65-.74 1.65-1.643v-1.643c0-.903-.742-1.643-1.65-1.643zm9.9 0c-.907 0-1.65.74-1.65 1.643V40c0 .904.742 1.643 1.65 1.643.908 0 1.65-.74 1.65-1.643v-1.643c0-.903-.742-1.643-1.65-1.643zm-6.6 8.247c0 .904.742 1.643 1.65 1.643.907 0 1.65-.739 1.65-1.643 0-.903-.742-1.642-1.65-1.642a1.63 1.63 0 0 0-1.65 1.642zm18.15-19.27V40c0 9.052-7.409 16.429-16.5 16.429-9.091 0-16.5-7.377-16.5-16.429V25.707c-.016-.788.132-1.478.726-1.906.742-.525 1.666-.262 2.211.46l4.719 5.159a16.455 16.455 0 0 1 8.86-2.58c3.234 0 6.254.937 8.795 2.53l4.752-5.125c.528-.74 1.6-.887 2.343-.361.561.427.61 1.051.594 1.807zm-3.3 4.895l-3.531 3.763a13.216 13.216 0 0 0-19.338 0L16.9 30.7V40c0 7.245 5.924 13.143 13.2 13.143 7.276 0 13.2-5.898 13.2-13.143v-9.414zM68.05 17c2.722 0 4.95 2.218 4.95 4.929V58.07C73 60.782 70.772 63 68.05 63h-56.1C9.227 63 7 60.782 7 58.071V28.5c0-.904.742-1.643 1.65-1.643.907 0 1.65.74 1.65 1.643v29.571c0 .904.742 1.643 1.65 1.643h56.1c.907 0 1.65-.739 1.65-1.643V21.93c0-.904-.743-1.643-1.65-1.643H15.267c-.908 0-1.65-.74-1.65-1.643 0-.904.742-1.643 1.65-1.643H68.05z" fill="#ADB5BD" fill-rule="evenodd"/>
</svg>
